X: 36680
T: She Hasn't The Thing She Thought She Had
R: slide
M: 12/8
K: Dmajor
M:6/8
|:A2 G|FGA D2 d|c2 B A2 G|FGA DEF|E3 A2 G|
FGA D2 d|c2 B A2 G|FGA ABc|d3:|
|:d2 e|f2 d e2c|dcB A3|fed c2 d|e3 ede|
f2 d e2 c|dcB A2 G|FGA ABc|d3:|

